!!!!SEGMENT: pl-wtm--r-1227--004_lodwigowski-edward-stefan--a-gdziez-sie-podzialy.krn
!!!cenid: 18xx:1944
!!!COM: Łodwigowski, Edward Stefan
!!!COM-rism: pe30111147
!!!CDT: 1815/08/14-1895/11/12
!!!CNT: Polish
!!!OTL: A gdzież się podziały
!!!PDT:
!!!AGN:
!!!SMS-siglum: PL-Wtm
!!!SMS-shelfmark: R 1227
!!!NIFC-rismID: 1001084031
!!!URL-scan: http://repozytorium.nifc.pl/skany/pl-wtm-nut--r1226-1227
!!!ONB-nifc: UWAGA: No. 76
!!!SMS-variant:
!!!SMS-altvar:
!!!OMD: Mazur
**kern	**kern	**fing	**dynam
*part1	*part1	*part1	*part1
*staff2	*staff1	*staff1	*
*I"Fortepian	*I"Fortepian	*	*
*>[A,A,B,B,]	*>[A,A,B,B,]	*>[A,A,B,B,]	*>[A,A,B,B,]
*>A	*>A	*>A	*>A
*clefF4	*clefG2	*	*
*k[f#c#]	*k[f#c#]	*	*
*M3/8	*M3/8	*	*
*all\right	*all\right	*	*
=1	=1	=1	=1
!	!LO:TX:a:Bi:t=No 76.	!	!
!	!LO:TX:a:i:t=A gdzież się podziały etc&colon; P. L. P.	!	!
8AL 8F# 8D'\	(4dd\	3	mf
8A 8F# 8D'\	.	.	.
.	(8qee/	.	.
8AJ 8F# 8D'\	16dd\LL)	.	.
.	16cc#\JJ	.	.
=2	=2	=2	=2
8AL 8F# 8D'\	16dd\LL	1	.
.	16ee\JJ	.	.
8A 8F# 8D'\	8ff#'\L)	.	.
8AJ 8F# 8D'\	8ff#\J	4	.
=3	=3	=3	=3
8BL 8G 8D'\	(4b\	1	.
8B 8G 8D'\	.	.	.
8B-XJ 8G 8D'\	16cc#\LL	.	.
.	16dd\JJ	.	.
=4	=4	=4	=4
8AL 8G 8D'\	16ee\LL	.	.
.	16dd\JJ	.	.
8A 8G 8D'\	8cc#\L	.	.
8AJ 8F# 8D'\	8dd\J)	.	.
=5:|!|:	=5:|!|:	=5:|!|:	=5:|!|:
*>B	*>B	*>B	*>B
!	!	!	!LO:HP:t=cres
8AA\L	(16eeLL 16cc#\	3 5	<
.	16ddJJ 16b\	.	.
8A\	8cc#L 8a\	.	.
8A\J	8ddJ 8b\)	.	.
!!LO:LB:g=original
=6	=6	=6	=6
8AA\L	(16eeLL 16cc#\	.	.
.	16ddJJ 16b\	.	.
8A\	8cc#L 8a\	.	.
8A\J	8ddJ 8b\)	.	.
=7	=7	=7	=7
8AA\L	(16eeLL 16cc#\	.	<
.	16ff#JJ 16dd\	1 3	.
8A\	8.ggL 8.ee\	.	.
8A\J	.	.	.
.	.	.	[
.	16ff#Jk 16dd\	.	.
=8	=8	=8	=8
!	!LO:TX:b:i:t=ralen.	!	!
8AA\L	16aaLL 16ff#\	.	>
.	16ggJJ 16ee\	.	.
8A\	8ff#L 8dd\	.	.
8G\J	8eeJ 8cc#\)	2 4	]
=9	=9	=9	=9
!	!LO:TX:a:i:t=a tempo	!	!
8F#L 8D'\	(4dd\	3	mf
8A 8F# 8D'\	.	.	.
.	(8qee/	.	.
8AJ 8F# 8D'\	16dd\LL)	.	.
.	16cc#\JJ	.	.
=10	=10	=10	=10
8AL 8F# 8D'\	16dd\LL	1	.
.	16ee\JJ	.	.
8A 8F# 8D'\	8ff#'\L)	.	.
8AJ 8F# 8D'\	8ff#'\J	4	.
=11	=11	=11	=11
8BL 8G 8D'\	(4b\	.	.
8B 8G 8D'\	.	.	.
8B-XJ 8G 8D'\	16cc#\LL	.	.
.	16dd\JJ	.	.
=12	=12	=12	=12
8AL 8G 8D'\	16ee\LL	.	.
.	16dd\JJ	.	.
8A 8G 8D'\	8cc#\L	.	.
8AJ 8F# 8D'\	8dd\J)	.	.
=:|!	=:|!	=:|!	=:|!
*-	*-	*-	*-
!!!system-decoration: {p1}
!!!RDF**kern: > = above
!!!RDF**kern: < = below
!!!RDF**kern: | = vertical stroke
!!!ENC: Andrzej Kubiczek
!!!END: 2021-05-02
!!!ENC: Andrzej Gręziak
!!!END: 2021-04-17
